X:1
T: Downing's Reel
C:
R:Reel
Q: 232
K:G
M:4/4
L:1/8
((3DEF) |G2 FG EG DF|G2 BG dG BG|G2 FG EF Dc|Be ed Bc AB|
G2 FG EF DF|GA Bc dB AB|G2 FG EF DA|Be ed B2 A2|
|:BA GA Bc d2|Be ed Bc d2|BA GA Bc d2|Be ed B2 A2|
BA GA Bc d2|Be ed Bc d2|G2 GB A2 Ac|Be ed B2 A2:|
G2 FG EG DF|G2 BG dG BG|G2 FG EF Dc|Be ed Bc AB|
G2 FG EF DF|GA Bc dB AB|G2 FG EF DA|Be ed B2 G2||
